!!!!SEGMENT: pl-sa--244-a-vii-4--001_boczkowski-kazimierz--christus-resurgens-ex-mortuis-sonata.krn
!!!cenid: 17xx:318
!!!COM: Boczkowski, Kazimierz
!!!COM-rism: pe30040643
!!!CDT: ~1650-~1749
!!!CNT: Polish
!!!OTL: Christus resurgens ex mortuis – Sonata
!!!PDT: 1700
!!!AGN: Sacred
!!!SMS-siglum: PL-SA
!!!SMS-shelfmark: 244/A VII 4
!!!NIFC-rismID: 1001035386
!!!system-decoration: [(s1,s2,s3)][(s4,s5,s6)]s7
**kern	**fba	**kern	**kern	**kern	**kern	**kern	**kern
*part7	*part7	*part6	*part5	*part4	*part3	*part2	*part1
*staff7	*staff7	*staff6	*staff5	*staff4	*staff3	*staff2	*staff1
*I"Baſso	*	*I"Baſso	*I"Canto Secundo	*I"Canto Primo	*I"Clarino 2do	*I"Clarino 1mo	*I"Clarino Primo
*I'bc	*	*I'B	*I'S	*I'S	*I'clno 2 in D	*I'clno 1 in D	*I'clno 1 in D
*clefF4	*	*clefF4	*clefC1	*clefC1	*clefG2	*clefG2	*clefG2
*	*	*	*	*	*ITrd-1c-2	*ITrd-1c-2	*ITrd-1c-2
*k[f#c#]	*	*k[f#c#]	*k[f#c#]	*k[f#c#]	*k[f#c#]	*k[f#c#]	*k[f#c#]
*M3/2	*	*M3/2	*M3/2	*M3/2	*M3/2	*M3/2	*M3/2
=1	=1	=1	=1	=1	=1	=1	=1
*2\right	*	*	*	*	*2\right	*	*2\right
!	!	!	!	!	!	!LO:TX:a:t=P:wszystkie caudy z prawej strony:problem	!
!	!	!LO:TX:a:B:t=Sonata \nTacet	!LO:TX:a:B:t=Sonata \nTacet	!LO:TX:a:B:t=Sonata \nTacet	!	!	!
!	!	!	!	!	!	!LO:TX:a:t=P:odpis partii Clarino Primo:problem	!
!LO:TX:b:Bi:t=ſonata:rj	!	!	!	!	!LO:TX:b:Bi:t=ſonata:rj	!	!LO:TX:b:Bi:t=ſonata:rj
1D	.	1.ryy	1.ryy	1.ryy	2d/	2d/	2d/
!LO:TX:b:Bi:t=2 Clarini	!	!	!	!	!	!LO:TX:b:Bi:t=ſonata	!
.	.	.	.	.	2f#/	2f#/	2f#/
2C#/	6	.	.	.	2a/	2a/	2a/
=2	=2	=2	=2	=2	=2	=2	=2
!	!	!	!	!	!LO:TX:a:t=P:problem:pominięty fragment	!	!
1D	.	1.ryy	1.ryy	1.ryy	1.ryy	2dd\	2dd\
.	.	.	.	.	.	2dd\	2dd\
2AA/	.	.	.	.	.	2ee\	2ee\
=3	=3	=3	=3	=3	=3	=3	=3
1D	.	1.ryy	1.ryy	1.ryy	2dd\	2ff#\	2ff#\
.	.	.	.	.	2dd\	2ff#\	2ff#\
2GG/	7	.	.	.	4ee\	4gg\	4gg\
.	.	.	.	.	4dd\	4ff#\	4ff#\
=4	=4	=4	=4	=4	=4	=4	=4
1AA	.	1.ryy	1.ryy	1.ryy	2a/	2ee\	2ee\
.	.	.	.	.	2a/	4ff#\	4ff#\
.	.	.	.	.	.	4gg\	4gg\
2C#/	6	.	.	.	4ff#\	4.aa\	4.aaT>\
.	.	.	.	.	4ee\	.	.
.	.	.	.	.	.	8gg\	8gg\
=5	=5	=5	=5	=5	=5	=5	=5
1D	.	1.ryy	1.ryy	1.ryy	2.dd\	2.ff#\	2.ff#\
.	.	.	.	.	4ee\	4gg\	4gg\
2FF#/	6	.	.	.	2ff#\	2aa\	2aa\
=6	=6	=6	=6	=6	=6	=6	=6
2GG/	.	1.ryy	1.ryy	1.ryy	4ee\	4gg\	4gg\
.	.	.	.	.	4dd\	4ff#\	4ff#\
1AA	6 5	.	.	.	2.a/	2.ee\	2.ee\
.	.	.	.	.	4a/	4ee\	4ee\
=7	=7	=7	=7	=7	=7	=7	=7
!LO:N:vis=2..	!	!	!	!	!LO:N:vis=2..	!	!
1.D\	.	1.ryy	1.ryy	1.ryy	1.f#	4dd\	4dd\
.	.	.	.	.	.	4a/	4a/
.	.	.	.	.	.	4dd\	4dd\
.	.	.	.	.	.	4ee\	4ee\
.	.	.	.	.	.	2ff#\	2ff#\
!	!	!	!	!	!	!LO:LB:g=original	!LO:LB:g=original
=8	=8	=8	=8	=8	=8	=8	=8
!LO:N:vis=2..	!	!	!	!	!	!	!
1.D\	.	1.ryy	1.ryy	1.ryy	4dd\	4ff#\	4ff#\
.	.	.	.	.	4a/	4dd\	4dd\
.	.	.	.	.	4dd\	4ff#\	4ff#\
.	.	.	.	.	4ee\	4gg\	4gg\
.	.	.	.	.	2ff#\	2aa\	2aa\
=9	=9	=9	=9	=9	=9	=9	=9
1G	.	1.ryy	1.ryy	1.ryy	2.ee\	2.gg\	2.gg\
!	!	!	!	!	!	!LO:N:vis=2	!
.	.	.	.	.	4dd\	4ff#\	4ff#\
2A\	.	.	.	.	2a/	2ee\	2ee\
!	!	!	!	!	!LO:LB:g=original	!	!
=10	=10	=10	=10	=10	=10	=10	=10
2D\	.	1.ryy	1.ryy	1.ryy	2dd\	4ff#\	4ff#\
.	.	.	.	.	.	4gg\	4gg\
2F#\	.	.	.	.	2a/	4ff#\	4ff#\
.	.	.	.	.	.	4ee\	4ee\
!	!	!	!	!	!LO:SIC:s=2g:v	!	!
2G\	.	.	.	.	2f#/	2dd\	2dd\
!LO:LB:g=original	!	!	!	!	!	!	!
=11	=11	=11	=11	=11	=11	=11	=11
!	!	!	!	!	!LO:N:vis=2..	!	!
2A\	.	1.ryy	1.ryy	1.ryy	1.a	2ee\	2ee\
4AA/	.	.	.	.	.	2aa\	2aa\
4BB/	.	.	.	.	.	.	.
4C#/	.	.	.	.	.	2ee\	2ee\
4AA/	.	.	.	.	.	.	.
=12	=12	=12	=12	=12	=12	=12	=12
2D\	.	1.ryy	1.ryy	1.ryy	2d/	2a/	2a/
2BB/	.	.	.	.	2f#/	2dd\	2dd\
2AA/	.	.	.	.	2a/	2ee\	2ee\
=13	=13	=13	=13	=13	=13	=13	=13
1.D	.	1.ryy	1.ryy	1.ryy	2.dd\	2.ff#\	2.ff#\
.	.	.	.	.	4a/	4ee\	4ee\
.	.	.	.	.	2f#/	2dd\	2dd\
=14	=14	=14	=14	=14	=14	=14	=14
2GG/	6 5	1.ryy	1.ryy	1.ryy	2ee\	2gg\	2gg\
2AA/	.	.	.	.	2a/	2ee\	2ee\
2C#/	6	.	.	.	4ff#\	4aa\	4aa\
.	.	.	.	.	4ee\	4gg\	4gg\
=15	=15	=15	=15	=15	=15	=15	=15
1.D	.	1.ryy	1.ryy	1.ryy	2.dd\	2.ff#\	2.ff#\
.	.	.	.	.	4a/	4ee\	4ee\
.	.	.	.	.	2f#/	2dd\	2dd\
=16	=16	=16	=16	=16	=16	=16-	=16
*	*^	*	*	*	*	*	*
1E	-5	#6	1.ryy	1.ryy	1.ryy	4ee\	4gg\	4gg\
.	.	.	.	.	.	4dd\	4ff#\	4ff#\
.	.	.	.	.	.	4ee\	4gg\	4gg\
.	.	.	.	.	.	4ff#\	4aa\	4aa\
2F#\	6	.	.	.	.	2dd\	2dd\	2dd\
!	!	!	!	!	!	!	!LO:LB:g=original	!LO:LB:g=original
*	*v	*v	*	*	*	*	*	*
=17	=17	=17	=17	=17	=17	=17	=17
1A	.	1.ryy	1.ryy	1.ryy	1a	1ee	1ee
2D\	.	.	.	.	2f#/	2dd\	2dd\
=18	=18	=18	=18	=18	=18	=18	=18
1C#	6	1.ryy	1.ryy	1.ryy	2a/	2ee\	2ee\
.	.	.	.	.	4a/	4ee\	4ee\
.	.	.	.	.	4a/	4ee\	4ee\
!	!	!	!	!	!LO:SIC:o=custos:v:t=znak przypominający custos odsyłający do kolejnej pięciolinii	!	!
!	!	!	!	!	!	!	!LO:TX:a:t=e
2D\	.	.	.	.	2dd\	2ff#\	2ff#\
!	!	!	!	!	!LO:LB:g=original	!	!
=19	=19	=19	=19	=19	=19	=19	=19
!LO:SIC:s=1F#:v	!	!	!	!	!	!	!
1E	.	1.ryy	1.ryy	1.ryy	2ff#\	2aa\	2aa\
.	.	.	.	.	2dd\	2ff#\	2ff#\
2GG/	.	.	.	.	4ee\	4gg\	4gg\
.	.	.	.	.	4dd\	4ff#\	4ff#\
=20	=20	=20	=20	=20	=20	=20	=20
1AA	.	1.ryy	1.ryy	1.ryy	1a	1ee	1ee
2D\	.	.	.	.	2f#/	2dd\	2dd\
=21	=21	=21	=21	=21	=21	=21-	=21
2A\	.	1.ryy	1.ryy	1.ryy	2a/	4ee\	4ee\
.	.	.	.	.	.	4ee\	4ee\
2F#\	.	.	.	.	4a/	4dd\	4dd\
.	.	.	.	.	4a/	4ee\	4ee\
2D\	.	.	.	.	2dd\	4ff#\	4ff#\
.	.	.	.	.	.	4gg\	4gg\
=22	=22	=22	=22	=22	=22	=22	=22
1A	.	1.ryy	1.ryy	1.ryy	2a/	1ee	1ee
.	.	.	.	.	4a/	.	.
.	.	.	.	.	4a/	.	.
2D\	.	.	.	.	2f#/	2dd\	2dd\
==	==	==	==	==	==	==	==
*-	*-	*-	*-	*-	*-	*-	*-
!!title: @{OTL};
!!!RDF**kern: > = above
!!!RDF**kern: < = below
!!!EED: Wojciech Jakubiak-Danek
!!!EST: 2020-10-14
!!!URL-scan: http://bc.bdsandomierz.pl/dlibra/publication/1596/edition/1564/content
!!!ONB-nifc: dodatkowa partia clno 3: uwzględnić w xml-u i edycji krytycznej, usunąć w transkrypcji dyplomatycznej. Części: Sonata, Christus resurgens
!!!ENC: Krzysztof Stępień
!!!END: 2020-04-18
